build/img/icons/cart.svg

<svg width="24" height="24" viewBox="0 0 24 24" fill="none" xmlns="http://www.w3.org/2000/svg">
<path d="M2.92632 3.00004C2.41684 3.00004 2 3.40504 2 3.90003C2 4.39503 2.41684 4.80003 2.92632 4.80003H4.98181L7.41339 14.25C7.61903 15.051 8.35823 15.6 9.20766 15.6H19.8316C20.6671 15.6 21.3767 15.0618 21.5971 14.2779L24 5.70003H8.48421L8.94737 7.50003H21.5971L19.8316 13.8H9.20766L6.77608 4.35003C6.6759 3.96241 6.44471 3.61868 6.11955 3.3739C5.79438 3.12913 5.39407 2.99747 4.98274 3.00004H2.92632ZM18.6737 15.6C17.1499 15.6 15.8947 16.8195 15.8947 18.3C15.8947 19.7805 17.1499 21 18.6737 21C20.1975 21 21.4526 19.7805 21.4526 18.3C21.4526 16.8195 20.1975 15.6 18.6737 15.6ZM10.3368 15.6C8.81305 15.6 7.55789 16.8195 7.55789 18.3C7.55789 19.7805 8.81305 21 10.3368 21C11.8606 21 13.1158 19.7805 13.1158 18.3C13.1158 16.8195 11.8606 15.6 10.3368 15.6ZM10.3368 17.4C10.8584 17.4 11.2632 17.7942 11.2632 18.3C11.2632 18.8067 10.8574 19.2 10.3368 19.2C9.81533 19.2 9.41053 18.8058 9.41053 18.3C9.41053 17.7933 9.81625 17.4 10.3368 17.4ZM18.6737 17.4C19.1952 17.4 19.6 17.7942 19.6 18.3C19.6 18.8067 19.1943 19.2 18.6737 19.2C18.1522 19.2 17.7474 18.8058 17.7474 18.3C17.7474 17.7933 18.1531 17.4 18.6737 17.4Z" fill="#535257"/>
</svg>

<svg width="24" height="24" fill="none" xmlns="http://www.w3.org/2000/svg">
    <path d="M2.926 3C2.416 3 2 3.405 2 3.9s.417.9.926.9h2.056l2.431 9.45c.206.801.945 1.35 1.795 1.35h10.624c.835 0 1.545-.538 1.765-1.322L24 5.7H8.484l.463 1.8h12.65l-1.765 6.3H9.208L6.776 4.35a1.781 1.781 0 0 0-.656-.976A1.872 1.872 0 0 0 4.983 3H2.926zm15.748 12.6c-1.524 0-2.78 1.22-2.78 2.7 0 1.48 1.256 2.7 2.78 2.7 1.524 0 2.779-1.22 2.779-2.7 0-1.48-1.255-2.7-2.78-2.7zm-8.337 0c-1.524 0-2.78 1.22-2.78 2.7 0 1.48 1.256 2.7 2.78 2.7 1.524 0 2.779-1.22 2.779-2.7 0-1.48-1.255-2.7-2.78-2.7zm0 1.8c.521 0 .926.394.926.9 0 .507-.406.9-.926.9-.522 0-.926-.394-.926-.9 0-.507.405-.9.926-.9zm8.337 0c.521 0 .926.394.926.9 0 .507-.406.9-.926.9-.522 0-.927-.394-.927-.9 0-.507.406-.9.927-.9z" fill="#535257"/>
</svg>
